src/icons/heart.svg

<svg version="1.1" width="20" height="17.8" id="Слой_1" xmlns="http://www.w3.org/2000/svg" xmlns:xlink="http://www.w3.org/1999/xlink" x="0px" y="0px"
	 viewBox="0 0 20.2 17.8" style="enable-background:new 0 0 20.2 17.8;" xml:space="preserve">
<path class="st0" d="M14.4,0c-1.7,0-3.2,0.7-4.3,2C9,0.7,7.5,0,5.8,0C2.6,0,0,2.8,0,6.3c0,7.1,9.7,11.4,9.8,11.4
	c0.1,0,0.2,0.1,0.3,0.1c0.1,0,0.2,0,0.3-0.1c0.1,0,9.8-4.3,9.8-11.4C20.3,2.8,17.7,0,14.4,0z M5.8,1.6c1.5,0,2.8,0.8,3.7,2.2
	C9.6,4,9.9,4.2,10.2,4.2s0.6-0.2,0.7-0.4c0.7-1.4,2.1-2.2,3.6-2.2c2.4,0,4.2,2,4.2,4.7c0,5.4-7,9-8.6,9.8c-1.6-0.8-8.6-4.4-8.6-9.8
	C1.6,3.6,3.4,1.6,5.8,1.6z"/>
</svg>

<svg width="21" height="18" viewBox="0 0 21 18" fill="none" xmlns="http://www.w3.org/2000/svg">
<path d="M14.4 0C12.7 0 11.2 0.7 10.1 2C9 0.7 7.5 0 5.8 0C2.6 0 0 2.8 0 6.3C0 13.4 9.7 17.7 9.8 17.7C9.9 17.7 10 17.8 10.1 17.8C10.2 17.8 10.3 17.8 10.4 17.7C10.5 17.7 20.2 13.4 20.2 6.3C20.3 2.8 17.7 0 14.4 0ZM5.8 1.6C7.3 1.6 8.6 2.4 9.5 3.8C9.6 4 9.9 4.2 10.2 4.2C10.5 4.2 10.8 4 10.9 3.8C11.6 2.4 13 1.6 14.5 1.6C16.9 1.6 18.7 3.6 18.7 6.3C18.7 11.7 11.7 15.3 10.1 16.1C8.5 15.3 1.5 11.7 1.5 6.3C1.6 3.6 3.4 1.6 5.8 1.6Z" fill="#131313"/>
</svg>
